X:38
T: Graf von Rom
N: Q0014A
O: Mitteleuropa, Deutschland
N: geistliche Kontrafaktur mit Tonangabe des "Graf von Rom"
R: Ballade, Pilger - Reise, Gefangenschaft, Befreiung, Ehe, Liebe;
M: none
L: 1/8
K: F
F2 | F2F2A2F2 | c4c4z2
c2 | d2c2_e2c2 | d4c4z2
c2 | A2A2B2d2 | c4c4z2
c2 | A2c2c2A2 | G4F4z2
c2 | c3dc2c2 | A4G4z2
G2 | F4F2F4G2 | A4G4z2
C2 | F2F2G2G2 | AGABc4z2
c2 | c2A2G2A2 | G4F4

@@@ Tune index: 667
